shader_type spatial;
render_mode unshaded, cull_disabled;

uniform vec4 color: source_color = vec4(1.0,0.0,0.0,1.0);

float fresnel(float amount, vec3 normal)
void vertex() {
	// Called for every vertex the material is visible on.
}

void fragment() {
	// Called for every pixel the material is visible on.
}

//void light() {
//	// Called for every pixel for every light affecting the material.
//	// Uncomment to replace the default light processing function with this one.
//}
